X:1
T:Hoo-Hoo March
T:Henry Wehrmann
T:Copyright 1894 by Henry Wehrmann
T:Copyright 1894 by Henry Wehrmann
T:Copyright 1894 by Henry Wehrmann
Z:Copyright 1894 by Henry Wehrmann
%%score { 1 | 2 }
L:1/8
Q:1/4=90
M:2/4
K:C
V:1 treble nm="Piano" snm="Pno."
V:2 bass 
V:1
!f! e>f ed | cB!<(! A/B/c/d/!<)! |!ff! e z !>![E^Ge] z | z!>(! E{/G}FE!>)! |:!mf! c2 B2 | A2 c2 | %6
 (e/f/e/^d/ e/f/e/d/ | e) E{/G}FE | c2 B2 | A2 c2 | (e/f/e/^d/ e/f/e/d/ | e) e{/g}fe | Pd>c B2- | %13
 B d{/f}ed | Pc>B A2- | A!<(! ABc!<)! |!f! B2 [^Ge]2 | [A^d]2 [AB]2 |1 [^Ge]!ff! E/E/ !>!EE/E/ | %19
 !>!E!>(! E{/G}F!mf!E!>)! :|2 [^Ge] E/E/ !>!EE/E/ | E!ff!!<(! [Ee][Ff]!fff![^F^f]!<)! || %22
!ff! [Geg]3 [Afa] | [Bgb][cac'] [dbd'][ec'e'] | [ge'g'] z [fd'f']2- | [fd'f'] Aed | Pc z B2- | %27
 BF cB | PA z G2- | G [Ee][Ff][^F^f] | [Geg]3 [Afa] | [Bgb][cac'] [dbd'][ec'e'] | %32
 [ge'g'] z [fd'f']2- | [fd'f'] Aed | PcG ^FG | [Ge] z [Fd] z | (([Fd]4 | [Ec])) [Ee][Ff][^F^f] | %38
!ff! [Geg]3 [Afa] | [Bgb][cac'] [dbd'][ec'e'] | [ge'g'] z [fd'f']2- | [fd'f'] Aed | Pc z B2- | %43
 BF cB | PA z G2- | G [Ee][Ff][^F^f] | [Geg]3 [Afa] | [Bgb][cac'] [dbd'][ec'e'] | %48
 [ge'g'] z [fd'f']2- | [fd'f'] Aed | Pc G^FG | [Ge] z [Fd] z |!<(! (([Fd]4!<)! | %53
!fff! [Ec]))!mf! A_B=B |:[K:F]!mf! d2 c2 | B2 G2 | F(G/A/ B/c/d/e/) | [Ff] F{/A}GF | EG Bd | f3 e | %60
 d>c =B>d | c!<(! [Aa][Bb][=B=b]!<)! |!f! [dd']2 [cc']2 | [Bb]2 [Gg]2 | [Ff] (G/A/ B/c/d/e/) | %65
 [Ff] [Ff][Ff][Ff] | [Ff]>[Ff] [F_e][F_d] | [Ff]>[Ff] [Fc][FA] |{/d} cG AG |1 %69
 F!>(! AB!mf!=B!>)! :|2!f! F!ff! z!<(! [Ff]!fff![Aa]!<)! |:!ff! [dd']2 [cc']2 | [Ff]2 [Gg][Aa] | %73
 [Bb][Aa] [Gg][Ff] | [Ee]2 [Ff][Gg] | [Ff]2 [Aa]2 | [dd']2 [Gg]2 | [cc']4- | [cc']2 [dd'][ee'] | %79
 [ff']3 [ff'] | [^f^f']3 [ff'] | [gg']2 [gg']2 | [dd'][ff'] [ee'][dd'] | [cc'][Aa][cc'][ff'] | %84
 [dd']2 [ee']2 | [ff']4- |1 [ff'] z!<(! [Ff]!fff![Aa]!<)! :|2 %87
!ff! [ff'] z !arpeggio!!>![FAcf] !fermata!z |] %88
V:2
 E>F ED | CB, A,/B,/C/D/ | E z !>![E,B,D] z | z4 |: A,,[E,A,C] E,,[E,A,C] | A,,[E,A,C] E,,[E,A,C] | %6
 A,,[E,A,C] E,,[E,A,C] | A,,[E,A,C] E,,[E,A,C] | A,,[E,A,C] E,,[E,A,C] | A,,[E,A,C] E,,[E,A,C] | %10
 A,,[E,A,C] E,,[E,A,C] | A,,[E,A,C] E,,[E,A,C] | B,,[E,^G,D] E,,[E,G,D] | ^G,,[E,^G,D] E,,[E,G,D] | %14
 A,,[E,A,C] E,,[E,A,C] | A,,[E,A,C] E,,[E,A,C] | [B,,B,][^G,B,E] [B,,B,][G,B,E] | %17
 B,,[A,B,^D] ^D,[A,B,D] |1 [E,^G,B,E] z [E,,E,] z | [E,,E,] z z2 :|2 [E,^G,B,E] z [E,,E,] z | %21
 [E,,E,] z z2 || C,[G,CE] G,,[G,CE] | C,[G,CE] E,[G,CE] | F,[A,D] D,[F,A,D] | F,[A,D] D,[F,A,D] | %26
 D,[F,G,B,] G,,[F,G,B,] | D,[F,G,B,] G,,[F,G,B,] | C,[G,CE] G,,[G,CE] | C,[G,CE] G,,[G,CE] | %30
 C,[G,CE] G,,[G,CE] | C,[G,CE] E,[G,CE] | F,[A,D] D,[F,A,D] | F,[A,D] D,[F,A,D] | %34
 G,,[G,CE] G,,[G,CE] | G,,G, G,,G, | [G,,G,][^G,,^G,] [A,,A,][B,,B,] | [C,C] z z2 | %38
 C,[G,CE] G,,[G,CE] | C,[G,CE] E,[G,CE] | F,[A,D] D,[F,A,D] | F,[A,D] D,[F,A,D] | %42
 D,[F,G,B,] G,,[F,G,B,] | D,[F,G,B,] G,,[F,G,B,] | C,[G,CE] G,,[G,CE] | C,[G,CE] G,,[G,CE] | %46
 C,[G,CE] G,,[G,CE] | C,[G,CE] E,[G,CE] | F,[A,D] D,[F,A,D] | F,[A,D] D,[F,A,D] | %50
 G,,[G,CE] G,,[G,CE] | G,,G, G,,G, | [G,,G,][^G,,^G,] [A,,A,][B,,B,] | [C,C] z z2 |: %54
[K:F] C,[B,CE] E,[B,CE] | G,[B,CE] C,[B,CE] | F,[A,C] E,[A,C] | D,[A,C] C,[A,C] | %58
 G,[B,CE] C,[B,CE] | G,[B,CE] C,[B,CE] | F,[A,C] F,[^G,D] | [A,C] z z2 | C,[B,CE] E,[B,CE] | %63
 G,[B,CE] C,[B,CE] | F,[A,C] E,[A,C] | D,[A,C] C,[A,C] | [_D,_A,_D]3 [D,A,D] | [C,=A,C]3 [C,A,C] | %68
 C,[G,B,C] E,[G,B,C] |1 [F,A,C] z z2 :|2 [F,A,C] z z2 |: [F,,F,][A,CF] C,[A,CF] | %72
 F,[A,CF] C,[A,CF] | G,[B,CE] C,[B,CE] | G,[B,C] C,[B,C] | F,[A,C] F,[A,C] | G,[=B,F] G,[B,F] | %77
 [C,C][D,D] [C,C][B,,B,] | [A,,A,][B,,B,] [A,,A,][G,,G,] | [F,,F,][A,CF][A,CF][A,CF] | %80
 D,[^F,A,C][F,A,C][F,A,C] | G,[B,DG][B,DG][B,DG] | [=B,,=B,][F,^G,D][F,G,D][F,G,D] | %83
 [C,C][A,CF][A,CF][A,CF] | G,[=B,F] C,[_B,CE] | [F,A,CF][D,D][C,C][A,,A,] |1 [F,,F,] z z2 :|2 %87
 [F,,F,] z !arpeggio!!>![F,,C,A,] z |] %88

